packages/icons/raw/imported/GenericPlus.svg

<svg width="32" height="32" viewBox="0 0 32 32" fill="none" xmlns="http://www.w3.org/2000/svg">
<path d="M21.1154 16.5C21.3915 16.5 21.6154 16.2761 21.6154 16C21.6154 15.7239 21.3915 15.5 21.1154 15.5V16.5ZM10.8846 15.5C10.6085 15.5 10.3846 15.7239 10.3846 16C10.3846 16.2761 10.6085 16.5 10.8846 16.5V15.5ZM15.5 21.1155C15.5 21.3916 15.7239 21.6155 16 21.6155C16.2761 21.6155 16.5 21.3916 16.5 21.1155H15.5ZM16.5 10.8847C16.5 10.6086 16.2761 10.3847 16 10.3847C15.7239 10.3847 15.5 10.6086 15.5 10.8847H16.5ZM21.1154 15.5L10.8846 15.5V16.5L21.1154 16.5V15.5ZM16.5 21.1155V10.8847H15.5V21.1155H16.5ZM25 16C25 20.9706 20.9706 25 16 25V26C21.5228 26 26 21.5228 26 16H25ZM16 25C11.0294 25 7 20.9706 7 16H6C6 21.5228 10.4772 26 16 26V25ZM7 16C7 11.0294 11.0294 7 16 7V6C10.4772 6 6 10.4772 6 16H7ZM16 7C20.9706 7 25 11.0294 25 16H26C26 10.4772 21.5228 6 16 6V7Z" fill="black"/>
</svg>

<svg width="32" height="32" fill="none" xmlns="http://www.w3.org/2000/svg"><path d="M21.115 16.5a.5.5 0 0 0 0-1v1Zm-10.23-1a.5.5 0 0 0 0 1v-1Zm4.615 5.616a.5.5 0 0 0 1 0h-1Zm1-10.231a.5.5 0 0 0-1 0h1Zm4.615 4.615h-10.23v1h10.23v-1ZM16.5 21.116V10.885h-1v10.23h1ZM25 16a9 9 0 0 1-9 9v1c5.523 0 10-4.477 10-10h-1Zm-9 9a9 9 0 0 1-9-9H6c0 5.523 4.477 10 10 10v-1Zm-9-9a9 9 0 0 1 9-9V6C10.477 6 6 10.477 6 16h1Zm9-9a9 9 0 0 1 9 9h1c0-5.523-4.477-10-10-10v1Z" fill="#000"/></svg>
